TH2/candle.svg

<svg xmlns="http://www.w3.org/2000/svg" viewBox="0 0 1200 800" preserveAspectRatio="none" width="1200" height="800">
 <title>
  ROOT canvas
 </title>
 <path d="M0,0H1200V800H0Z" style="fill: white;"></path>
 <g>
  <g transform="translate(120,80)">
   <title></title>
   <path d="M0,0H960V640H0Z" style="fill: white; stroke: black; stroke-width: 1;"></path>
   <svg x="0" y="0" overflow="hidden" width="960" height="640" viewBox="0 0 960 640">
    <g>
     <path d="M16,279h21M16,258v44h21v-44zM27,258v-68M16,190h21M27,302v78M16,380h21M96,264h21M96,241v45h21v-45zM107,241v-68M96,173h21M107,286v102M96,388h21M176,256h21M176,236v43h21v-43zM187,236v-60M176,176h21M187,279v91M176,370h21M256,255h21M256,232v45h21v-45zM267,232v-68M256,164h21M267,277v91M256,368h21M336,259h21M336,236v45h21v-45zM347,236v-67M336,169h21M347,281v73M336,354h21M416,267h21M416,246v42h21v-42zM427,246v-62M416,184h21M427,288v80M416,368h21M496,273h21M496,253v43h21v-43zM507,253v-64M496,189h21M507,296v72M496,368h21M576,290h21M576,267v46h21v-46zM587,267v-69M576,198h21M587,313v74M576,387h21M656,306h21M656,284v44h21v-44zM667,284v-66M656,218h21M667,328v68M656,396h21M736,322h21M736,301v42h21v-42zM747,301v-62M736,239h21M747,343v82M736,425h21M816,338h21M816,317v42h21v-42zM827,317v-62M816,255h21M827,359v81M816,440h21M896,352h21M896,330v43h21v-43zM907,330v-65M896,265h21M907,373v100M896,473h21" style="stroke: rgb(0,0,153); stroke-width: 1; fill: none;"></path>
     <path d="M23,396l8,8m0,-8l-8,8M23,708l8,8m0,-8l-8,8M23,753l8,8m0,-8l-8,8M103,746l8,8m0,-8l-8,8M103,755l8,8m0,-8l-8,8M183,743l8,8m0,-8l-8,8M263,741l8,8m0,-8l-8,8M263,746l8,8m0,-8l-8,8M263,748l8,8m0,-8l-8,8M343,748l8,8m0,-8l-8,8M343,773l8,8m0,-8l-8,8M423,710l8,8m0,-8l-8,8M423,711l8,8m0,-8l-8,8M423,723l8,8m0,-8l-8,8M423,736l8,8m0,-8l-8,8M503,702l8,8m0,-8l-8,8M503,703l8,8m0,-8l-8,8M503,707l8,8m0,-8l-8,8M583,701l8,8m0,-8l-8,8M663,659l8,8m0,-8l-8,8M663,661l8,8m0,-8l-8,8M663,667l8,8m0,-8l-8,8M663,672l8,8m0,-8l-8,8M663,683l8,8m0,-8l-8,8M663,694l8,8m0,-8l-8,8M663,702l8,8m0,-8l-8,8M743,629l8,8m0,-8l-8,8M743,647l8,8m0,-8l-8,8M743,648l8,8m0,-8l-8,8M743,674l8,8m0,-8l-8,8M823,604l8,8m0,-8l-8,8M823,605l8,8m0,-8l-8,8M823,621l8,8m0,-8l-8,8M823,630l8,8m0,-8l-8,8M823,639l8,8m0,-8l-8,8M903,585l8,8m0,-8l-8,8M903,587l8,8m0,-8l-8,8M903,591l8,8m0,-8l-8,8" style="stroke: rgb(0,0,153); fill: none;"></path>
    </g>
    <g>
     <path d="M43,257h21M43,228v58h21v-58zM53,228v-87M43,141h21M53,286v103M43,389h21M123,266h21M123,234v64h21v-64zM133,234v-89M123,145h21M133,298v139M123,437h21M203,274h21M203,242v61h21v-61zM213,242v-93M203,149h21M213,303v116M203,419h21M283,287h21M283,260v55h21v-55zM293,260v-84M283,176h21M293,315v138M283,453h21M363,300h21M363,268v63h21v-63zM373,268v-93M363,175h21M373,331v131M363,462h21M443,315h21M443,286v59h21v-59zM453,286v-89M443,197h21M453,345v89M443,434h21M523,332h21M523,299v65h21v-65zM533,299v-95M523,204h21M533,364v118M523,482h21M603,345h21M603,315v59h21v-59zM613,315v-88M603,227h21M613,374v114M603,488h21M683,360h21M683,329v59h21v-59zM693,329v-88M683,241h21M693,388v121M683,509h21M763,372h21M763,341v61h21v-61zM773,341v-90M763,251h21M773,402v92M763,494h21M843,377h21M843,345v64h21v-64zM853,345v-90M843,255h21M853,409v153M843,562h21M923,383h21M923,354v56h21v-56zM933,354v-85M923,269h21M933,410v114M923,524h21" style="stroke: red; stroke-width: 1; fill: none;"></path>
     <path d="M49,381l8,8m0,-8l-8,8M49,785l8,8m0,-8l-8,8M49,790l8,8m0,-8l-8,8M49,791l8,8m0,-8l-8,8M49,806l8,8m0,-8l-8,8M49,813l8,8m0,-8l-8,8M49,815l8,8m0,-8l-8,8M49,878l8,8m0,-8l-8,8M129,786l8,8m0,-8l-8,8M209,781l8,8m0,-8l-8,8M209,789l8,8m0,-8l-8,8M289,724l8,8m0,-8l-8,8M289,731l8,8m0,-8l-8,8M289,748l8,8m0,-8l-8,8M369,723l8,8m0,-8l-8,8M369,724l8,8m0,-8l-8,8M369,742l8,8m0,-8l-8,8M449,690l8,8m0,-8l-8,8M449,695l8,8m0,-8l-8,8M449,700l8,8m0,-8l-8,8M449,705l8,8m0,-8l-8,8M449,722l8,8m0,-8l-8,8M529,684l8,8m0,-8l-8,8M609,648l8,8m0,-8l-8,8M609,661l8,8m0,-8l-8,8M609,665l8,8m0,-8l-8,8M689,628l8,8m0,-8l-8,8M689,634l8,8m0,-8l-8,8M689,671l8,8m0,-8l-8,8M769,607l8,8m0,-8l-8,8M769,616l8,8m0,-8l-8,8M769,623l8,8m0,-8l-8,8M769,625l8,8m0,-8l-8,8M769,633l8,8m0,-8l-8,8M849,607l8,8m0,-8l-8,8M929,577l8,8m0,-8l-8,8M929,578l8,8m0,-8l-8,8M929,597l8,8m0,-8l-8,8M929,611l8,8m0,-8l-8,8M929,614l8,8m0,-8l-8,8M929,619l8,8m0,-8l-8,8" style="stroke: red; fill: none;"></path>
    </g>
   </svg>
   <g>
    <g transform="translate(0,640)">
     <path d="M0,0h960" style="stroke: black; stroke-width: 1;"></path>
     <path d="M0,-24v24m82,-12v12m73,-12v12m82,-24v24m79,-12v12m81,-12v12m79,-24v24m81,-12v12m82,-12v12m79,-24v24m82,-12v12m78,-12v12m82,-24v24" style="stroke: black; stroke-width: 1;"></path>
     <g font-family="Arial" font-size="28" space="preserve">
      <text fill="black" text-anchor="middle" dy=".8em" transform="translate(0,6)">
       01/10
      </text>
      <text fill="black" text-anchor="middle" dy=".8em" transform="translate(237,6)">
       04/10
      </text>
      <text fill="black" text-anchor="middle" dy=".8em" transform="translate(476,6)">
       07/10
      </text>
      <text fill="black" text-anchor="middle" dy=".8em" transform="translate(718,6)">
       10/10
      </text>
      <text fill="black" text-anchor="middle" dy=".8em" transform="translate(960,6)">
       01/11
      </text>
     </g>
     <g font-family="Arial" font-size="28" space="preserve" transform="translate(960,45)">
      <text fill="black" text-anchor="end" dy=".4em">
       Date [month/year]
      </text>
     </g>
    </g>
    <g>
     <path d="M0,0v640" style="stroke: black; stroke-width: 1;"></path>
     <path d="M36,640h-36m18,-32h-18m18,-32h-18m18,-32h-18m36,-32h-36m18,-32h-18m18,-32h-18m18,-32h-18m36,-32h-36m18,-32h-18m18,-32h-18m18,-32h-18m36,-32h-36m18,-32h-18m18,-32h-18m18,-32h-18m36,-32h-36m18,-32h-18m18,-32h-18m18,-32h-18m36,-32h-36" style="stroke: black; stroke-width: 1;"></path>
     <g font-family="Arial" font-size="28" space="preserve">
      <text fill="black" text-anchor="end" dy=".4em" transform="translate(-4,640)">
       0
      </text>
      <text fill="black" text-anchor="end" dy=".4em" transform="translate(-4,512)">
       200
      </text>
      <text fill="black" text-anchor="end" dy=".4em" transform="translate(-4,384)">
       400
      </text>
      <text fill="black" text-anchor="end" dy=".4em" transform="translate(-4,256)">
       600
      </text>
      <text fill="black" text-anchor="end" dy=".4em" transform="translate(-4,128)">
       800
      </text>
      <text fill="black" text-anchor="end" dy=".4em" transform="translate(-4,0)">
       1000
      </text>
     </g>
    </g>
   </g>
  </g>
  <g transform="translate(120,4)" font-family="Arial" font-size="40" space="preserve">
   <path d="M0,0h960v53h-960z" style="fill: none;"></path>
   <text fill="black" text-anchor="middle" dy=".8em" transform="translate(480,0)">
    Machine A + B
   </text>
  </g>
  <g transform="translate(720,160)" font-family="Arial" font-size="11" space="preserve">
   <path d="M0,0h120v80h-120z" style="fill: white; stroke: black; stroke-width: 1;"></path>
   <rect x="4" y="6" width="22" height="30" style="fill: none; stroke: rgb(0,0,153); stroke-width: 1;"></rect>
   <text fill="black" text-anchor="start" dy=".4em" transform="translate(30,21)">
    Machine A + B
   </text>
   <rect x="4" y="44" width="22" height="30" style="fill: none; stroke: red; stroke-width: 1;"></rect>
   <text fill="black" text-anchor="start" dy=".4em" transform="translate(30,59)">
    Machine B
   </text>
  </g>
  <g transform="translate(936,52)" font-family="Arial" font-size="21" space="preserve">
   <path d="M0,0h240v212h-240z" style="fill: white; stroke: black; stroke-width: 1;"></path>
   <text fill="black" text-anchor="middle" dy=".4em" transform="translate(120,18)">
    h1
   </text>
   <text fill="black" text-anchor="start" dy=".4em" transform="translate(12,53)">
    Entries
   </text>
   <text fill="black" text-anchor="end" dy=".4em" transform="translate(228,53)">
    13000
   </text>
   <text fill="black" text-anchor="start" dy=".4em" transform="translate(12,88)">
    Mean x
   </text>
   <text fill="black" text-anchor="end" dy=".4em" transform="translate(228,88)">
    1.278e+9
   </text>
   <text fill="black" text-anchor="start" dy=".4em" transform="translate(12,124)">
    Mean y
   </text>
   <text fill="black" text-anchor="end" dy=".4em" transform="translate(228,124)">
    550.1
   </text>
   <text fill="black" text-anchor="start" dy=".4em" transform="translate(12,159)">
    Std Dev x
   </text>
   <text fill="black" text-anchor="end" dy=".4em" transform="translate(228,159)">
    9698376
   </text>
   <text fill="black" text-anchor="start" dy=".4em" transform="translate(12,194)">
    Std Dev y
   </text>
   <text fill="black" text-anchor="end" dy=".4em" transform="translate(228,194)">
    69.45
   </text>
   <path d="M0,35h240" style="stroke: black; stroke-width: 1;"></path>
  </g>
 </g>
</svg>

<svg xmlns="http://www.w3.org/2000/svg" viewBox="0 0 1200 800" preserveAspectRatio="none" width="1200" height="800">
 <title>
  ROOT canvas
 </title>
 <path d="M0,0H1200V800H0Z" style="fill: white;"></path>
 <g>
  <g transform="translate(120,80)">
   <title></title>
   <path d="M0,0H960V640H0Z" style="fill: white; stroke: black; stroke-width: 1;"></path>
   <svg x="0" y="0" overflow="hidden" width="960" height="640" viewBox="0 0 960 640">
    <g>
     <path d="M16,279h21M16,258v44h21v-44zM27,258v-68M16,190h21M27,302v78M16,380h21M96,264h21M96,241v45h21v-45zM107,241v-68M96,173h21M107,286v102M96,388h21M176,256h21M176,236v43h21v-43zM187,236v-60M176,176h21M187,279v91M176,370h21M256,255h21M256,232v45h21v-45zM267,232v-68M256,164h21M267,277v91M256,368h21M336,259h21M336,236v45h21v-45zM347,236v-67M336,169h21M347,281v73M336,354h21M416,267h21M416,246v42h21v-42zM427,246v-62M416,184h21M427,288v80M416,368h21M496,273h21M496,253v43h21v-43zM507,253v-64M496,189h21M507,296v72M496,368h21M576,290h21M576,267v46h21v-46zM587,267v-69M576,198h21M587,313v74M576,387h21M656,306h21M656,284v44h21v-44zM667,284v-66M656,218h21M667,328v68M656,396h21M736,322h21M736,301v42h21v-42zM747,301v-62M736,239h21M747,343v82M736,425h21M816,338h21M816,317v42h21v-42zM827,317v-62M816,255h21M827,359v81M816,440h21M896,352h21M896,330v43h21v-43zM907,330v-65M896,265h21M907,373v100M896,473h21" style="stroke: rgb(0,0,153); stroke-width: 1; fill: none;"></path>
     <path d="M23,396l8,8m0,-8l-8,8M23,708l8,8m0,-8l-8,8M23,753l8,8m0,-8l-8,8M103,746l8,8m0,-8l-8,8M103,755l8,8m0,-8l-8,8M183,743l8,8m0,-8l-8,8M263,741l8,8m0,-8l-8,8M263,746l8,8m0,-8l-8,8M263,748l8,8m0,-8l-8,8M343,748l8,8m0,-8l-8,8M343,773l8,8m0,-8l-8,8M423,710l8,8m0,-8l-8,8M423,711l8,8m0,-8l-8,8M423,723l8,8m0,-8l-8,8M423,736l8,8m0,-8l-8,8M503,702l8,8m0,-8l-8,8M503,703l8,8m0,-8l-8,8M503,707l8,8m0,-8l-8,8M583,701l8,8m0,-8l-8,8M663,659l8,8m0,-8l-8,8M663,661l8,8m0,-8l-8,8M663,667l8,8m0,-8l-8,8M663,672l8,8m0,-8l-8,8M663,683l8,8m0,-8l-8,8M663,694l8,8m0,-8l-8,8M663,702l8,8m0,-8l-8,8M743,629l8,8m0,-8l-8,8M743,647l8,8m0,-8l-8,8M743,648l8,8m0,-8l-8,8M743,674l8,8m0,-8l-8,8M823,604l8,8m0,-8l-8,8M823,605l8,8m0,-8l-8,8M823,621l8,8m0,-8l-8,8M823,630l8,8m0,-8l-8,8M823,639l8,8m0,-8l-8,8M903,585l8,8m0,-8l-8,8M903,587l8,8m0,-8l-8,8M903,591l8,8m0,-8l-8,8" style="stroke: rgb(0,0,153); fill: none;"></path>
    </g>
    <g>
     <path d="M43,257h21M43,228v58h21v-58zM53,228v-87M43,141h21M53,286v103M43,389h21M123,266h21M123,234v64h21v-64zM133,234v-89M123,145h21M133,298v139M123,437h21M203,274h21M203,242v61h21v-61zM213,242v-93M203,149h21M213,303v116M203,419h21M283,287h21M283,260v55h21v-55zM293,260v-84M283,176h21M293,315v138M283,453h21M363,300h21M363,268v63h21v-63zM373,268v-93M363,175h21M373,331v131M363,462h21M443,315h21M443,286v59h21v-59zM453,286v-89M443,197h21M453,345v89M443,434h21M523,332h21M523,299v65h21v-65zM533,299v-95M523,204h21M533,364v118M523,482h21M603,345h21M603,315v59h21v-59zM613,315v-88M603,227h21M613,374v114M603,488h21M683,360h21M683,329v59h21v-59zM693,329v-88M683,241h21M693,388v121M683,509h21M763,372h21M763,341v61h21v-61zM773,341v-90M763,251h21M773,402v92M763,494h21M843,377h21M843,345v64h21v-64zM853,345v-90M843,255h21M853,409v153M843,562h21M923,383h21M923,354v56h21v-56zM933,354v-85M923,269h21M933,410v114M923,524h21" style="stroke: red; stroke-width: 1; fill: none;"></path>
     <path d="M49,381l8,8m0,-8l-8,8M49,785l8,8m0,-8l-8,8M49,790l8,8m0,-8l-8,8M49,791l8,8m0,-8l-8,8M49,806l8,8m0,-8l-8,8M49,813l8,8m0,-8l-8,8M49,815l8,8m0,-8l-8,8M49,878l8,8m0,-8l-8,8M129,786l8,8m0,-8l-8,8M209,781l8,8m0,-8l-8,8M209,789l8,8m0,-8l-8,8M289,724l8,8m0,-8l-8,8M289,731l8,8m0,-8l-8,8M289,748l8,8m0,-8l-8,8M369,723l8,8m0,-8l-8,8M369,724l8,8m0,-8l-8,8M369,742l8,8m0,-8l-8,8M449,690l8,8m0,-8l-8,8M449,695l8,8m0,-8l-8,8M449,700l8,8m0,-8l-8,8M449,705l8,8m0,-8l-8,8M449,722l8,8m0,-8l-8,8M529,684l8,8m0,-8l-8,8M609,648l8,8m0,-8l-8,8M609,661l8,8m0,-8l-8,8M609,665l8,8m0,-8l-8,8M689,628l8,8m0,-8l-8,8M689,634l8,8m0,-8l-8,8M689,671l8,8m0,-8l-8,8M769,607l8,8m0,-8l-8,8M769,616l8,8m0,-8l-8,8M769,623l8,8m0,-8l-8,8M769,625l8,8m0,-8l-8,8M769,633l8,8m0,-8l-8,8M849,607l8,8m0,-8l-8,8M929,577l8,8m0,-8l-8,8M929,578l8,8m0,-8l-8,8M929,597l8,8m0,-8l-8,8M929,611l8,8m0,-8l-8,8M929,614l8,8m0,-8l-8,8M929,619l8,8m0,-8l-8,8" style="stroke: red; fill: none;"></path>
    </g>
   </svg>
   <g>
    <g transform="translate(0,640)">
     <path d="M0,0h960" style="stroke: black; stroke-width: 1;"></path>
     <path d="M0,-24v24m82,-12v12m73,-12v12m82,-24v24m79,-12v12m81,-12v12m79,-24v24m81,-12v12m82,-12v12m79,-24v24m82,-12v12m78,-12v12m82,-24v24" style="stroke: black; stroke-width: 1;"></path>
     <g font-family="Arial" font-size="28" space="preserve">
      <text fill="black" text-anchor="middle" dy=".8em" transform="translate(0,6)">
       01/10
      </text>
      <text fill="black" text-anchor="middle" dy=".8em" transform="translate(237,6)">
       04/10
      </text>
      <text fill="black" text-anchor="middle" dy=".8em" transform="translate(476,6)">
       07/10
      </text>
      <text fill="black" text-anchor="middle" dy=".8em" transform="translate(718,6)">
       10/10
      </text>
      <text fill="black" text-anchor="middle" dy=".8em" transform="translate(960,6)">
       01/11
      </text>
     </g>
     <g font-family="Arial" font-size="28" space="preserve" transform="translate(960,45)">
      <text fill="black" text-anchor="end" dy=".4em">
       Date [month/year]
      </text>
     </g>
    </g>
    <g>
     <path d="M0,0v640" style="stroke: black; stroke-width: 1;"></path>
     <path d="M36,640h-36m18,-32h-18m18,-32h-18m18,-32h-18m36,-32h-36m18,-32h-18m18,-32h-18m18,-32h-18m36,-32h-36m18,-32h-18m18,-32h-18m18,-32h-18m36,-32h-36m18,-32h-18m18,-32h-18m18,-32h-18m36,-32h-36m18,-32h-18m18,-32h-18m18,-32h-18m36,-32h-36" style="stroke: black; stroke-width: 1;"></path>
     <g font-family="Arial" font-size="28" space="preserve">
      <text fill="black" text-anchor="end" dy=".4em" transform="translate(-4,640)">
       0
      </text>
      <text fill="black" text-anchor="end" dy=".4em" transform="translate(-4,512)">
       200
      </text>
      <text fill="black" text-anchor="end" dy=".4em" transform="translate(-4,384)">
       400
      </text>
      <text fill="black" text-anchor="end" dy=".4em" transform="translate(-4,256)">
       600
      </text>
      <text fill="black" text-anchor="end" dy=".4em" transform="translate(-4,128)">
       800
      </text>
      <text fill="black" text-anchor="end" dy=".4em" transform="translate(-4,0)">
       1000
      </text>
     </g>
    </g>
   </g>
  </g>
  <g transform="translate(120,4)" font-family="Arial" font-size="40" space="preserve">
   <path d="M0,0H960V53H0Z" style="fill: none;"></path>
   <text fill="black" text-anchor="middle" dy=".8em" transform="translate(480,0)">
    Machine A + B
   </text>
  </g>
  <g transform="translate(720,160)" font-family="Arial" font-size="11" space="preserve">
   <path d="M0,0H120V80H0Z" style="fill: white; stroke: black; stroke-width: 1;"></path>
   <rect x="4" y="6" width="22" height="30" style="fill: none; stroke: rgb(0,0,153); stroke-width: 1;"></rect>
   <text fill="black" text-anchor="start" dy=".4em" transform="translate(30,21)">
    Machine A + B
   </text>
   <rect x="4" y="44" width="22" height="30" style="fill: none; stroke: red; stroke-width: 1;"></rect>
   <text fill="black" text-anchor="start" dy=".4em" transform="translate(30,59)">
    Machine B
   </text>
  </g>
  <g transform="translate(936,52)" font-family="Arial" font-size="21" space="preserve">
   <path d="M0,0H240V212H0Z" style="fill: white; stroke: black; stroke-width: 1;"></path>
   <text fill="black" text-anchor="middle" dy=".4em" transform="translate(120,18)">
    h1
   </text>
   <text fill="black" text-anchor="start" dy=".4em" transform="translate(12,53)">
    Entries
   </text>
   <text fill="black" text-anchor="end" dy=".4em" transform="translate(228,53)">
    13000
   </text>
   <text fill="black" text-anchor="start" dy=".4em" transform="translate(12,88)">
    Mean x
   </text>
   <text fill="black" text-anchor="end" dy=".4em" transform="translate(228,88)">
    1.278e+9
   </text>
   <text fill="black" text-anchor="start" dy=".4em" transform="translate(12,124)">
    Mean y
   </text>
   <text fill="black" text-anchor="end" dy=".4em" transform="translate(228,124)">
    550.1
   </text>
   <text fill="black" text-anchor="start" dy=".4em" transform="translate(12,159)">
    Std Dev x
   </text>
   <text fill="black" text-anchor="end" dy=".4em" transform="translate(228,159)">
    9698376
   </text>
   <text fill="black" text-anchor="start" dy=".4em" transform="translate(12,194)">
    Std Dev y
   </text>
   <text fill="black" text-anchor="end" dy=".4em" transform="translate(228,194)">
    69.45
   </text>
   <path d="M0,35h240" style="stroke: black; stroke-width: 1;"></path>
  </g>
 </g>
</svg>
